client/public/assets/icons/utility/power.svg

<?xml version="1.0"?><svg xmlns="http://www.w3.org/2000/svg" width="52" height="52" viewBox="0 0 52 52"><g fill="#fff"><path d="m34.4 7.7c-0.7-0.3-1.4 0.2-1.4 0.9v3.8c0 0.7 0.4 1.4 1 1.7 5.3 3 8.7 9 7.9 15.7-0.8 7.3-6.7 13.3-14.1 14.1-9.6 1.1-17.8-6.5-17.8-15.9 0-5.9 3.2-11.1 8-13.9 0.6-0.3 1-1 1-1.7v-3.8c0-0.7-0.7-1.2-1.4-0.9-8.5 3.5-14.4 12.3-13.5 22.3 0.9 10.3 9.1 18.7 19.4 19.9 13.2 1.4 24.5-8.9 24.5-21.9 0-9.2-5.6-17-13.6-20.3z m-5.4-4.2c0-0.8-0.7-1.5-1.5-1.5h-3c-0.8 0-1.5 0.7-1.5 1.5v17c0 0.8 0.7 1.5 1.5 1.5h3c0.8 0 1.5-0.7 1.5-1.5v-17z"></path></g></svg>

<?xml version="1.0" encoding="utf-8"?>
<!-- Generator: Adobe Illustrator 18.1.1, SVG Export Plug-In . SVG Version: 6.00 Build 0)  -->
<svg version="1.1" id="Layer_1" xmlns="http://www.w3.org/2000/svg" xmlns:xlink="http://www.w3.org/1999/xlink" x="0px" y="0px"
	 width="52px" height="52px" viewBox="0 0 52 52" enable-background="new 0 0 52 52" xml:space="preserve">
<g>
	<path fill="#FFFFFF" d="M34.4,7.7C33.7,7.4,33,7.9,33,8.6v3.8c0,0.7,0.4,1.4,1,1.7c5.3,3,8.7,9,7.9,15.7
		c-0.8,7.3-6.7,13.3-14.1,14.1C18.2,45,10,37.4,10,28c0-5.9,3.2-11.1,8-13.9c0.6-0.3,1-1,1-1.7V8.6c0-0.7-0.7-1.2-1.4-0.9
		C9.1,11.2,3.2,20,4.1,30C5,40.3,13.2,48.7,23.5,49.9C36.7,51.3,48,41,48,28C48,18.8,42.4,11,34.4,7.7z"/>
	<path fill="#FFFFFF" d="M29,3.5C29,2.7,28.3,2,27.5,2h-3C23.7,2,23,2.7,23,3.5v17c0,0.8,0.7,1.5,1.5,1.5h3c0.8,0,1.5-0.7,1.5-1.5
		V3.5z"/>
</g>
</svg>
